Origami/16x16/apps/Ri-li.svg

<svg width="16" height="16" version="1" xmlns="http://www.w3.org/2000/svg">
 <rect transform="matrix(0,-1,-1,0,0,0)" x="-16" y="-16" width="16" height="16" rx=".8" ry=".8" style="fill:#52845f"/>
 <path d="m2.9710936 5.0002344c-0.5203524 0-0.9710936 0.4420604-0.9710936 0.9695312v4.0607034c0 0.527471 0.4508626 0.958292 0.9710936 0.969531h4.0289064v5h2v-6.2c-4.42e-5 -0.4418095-0.3581905-0.7999558-0.8-0.8h-4.2v-2h8v9h2v-10.030234c0-0.5274708-0.450741-0.9695312-0.971094-0.9695312z" style="fill:#fbc295"/>
</svg>

<svg xmlns="http://www.w3.org/2000/svg" width="16" height="16" version="1">
 <rect style="fill:#52845f" width="16" height="16" x="-16" y="-16" rx=".8" ry=".8" transform="matrix(0,-1,-1,0,0,0)"/>
 <path style="fill:#fbc295" d="M 2.9710936,5.0002344 C 2.4507412,5.0002344 2,5.4422948 2,5.9697656 V 10.030469 C 2,10.55794 2.4508626,10.988761 2.9710936,11 H 7 v 5 H 9 V 9.8 C 8.9999558,9.3581905 8.6418095,9.0000442 8.2,9 H 4 V 7 h 8 V 7.3710936 9.4304688 16 h 2 V 9.4304688 7.3710936 5.9697656 C 14,5.4422948 13.549259,5.0002344 13.028906,5.0002344 Z"/>
</svg>
